X:173
T:Miss Milner's Delight. THO5.173
M:6/8
L:1/8
B:Thompson's Complete Collection of 200 Favourite Dances Vol.5
F:https://www.libraryofdance.org/manuals/1780c-Thompson-Compleat-5.pdf
Z:vmp. Peter Dunk 2024
Q:3/8=100
K:D
A|FDA d2f|eac d2f|eac dfB|ce^G A2A|
FDA d2f|eac d2f|e^ga cdB|A3-A2:|
|:A|cAc efg|ABc d2f|geb gfe|de^c B2A|
FDF AFA|dAd (f/g/a)g|fed ABc|d3-d2:|
W:
W:Cast off on Couple, the Gent turn the 3rd Lady
W:& the Lady the 3rd Gent ./.
W:Set corners ./:
W:& turn corners :/.
W:Gallop out sides, foot it & turn :/:

